packages/react-icons/icons/rewind.svg

<svg width="24" height="25" viewBox="0 0 24 25" xmlns="http://www.w3.org/2000/svg"><path fill-rule="evenodd" clip-rule="evenodd" d="M12.0001 4.40059C9.24929 4.40059 6.81752 5.77168 5.35283 7.87051L6.39199 7.87051C6.88905 7.87051 7.29199 8.27345 7.29199 8.77051C7.29199 9.26756 6.88905 9.67051 6.39199 9.67051L3.00019 9.67051C2.7615 9.67051 2.53258 9.57568 2.3638 9.4069C2.19501 9.23811 2.10019 9.00919 2.1002 8.7705L2.10022 5.37873C2.10023 4.88167 2.50317 4.47873 3.00023 4.47874C3.49729 4.47874 3.90023 4.88169 3.90022 5.37874L3.90021 6.80713C5.69102 4.26403 8.65071 2.60059 12.0001 2.60059C17.4677 2.60059 21.9001 7.03297 21.9001 12.5006C21.9001 17.9682 17.4677 22.4006 12.0001 22.4006C6.53248 22.4006 2.1001 17.9682 2.1001 12.5006C2.1001 12.0035 2.50304 11.6006 3.0001 11.6006C3.49715 11.6006 3.9001 12.0035 3.9001 12.5006C3.9001 16.9741 7.52659 20.6006 12.0001 20.6006C16.4736 20.6006 20.1001 16.9741 20.1001 12.5006C20.1001 8.02708 16.4736 4.40059 12.0001 4.40059ZM12.8986 9.10801C12.8986 8.61095 12.4957 8.20801 11.9986 8.20801C11.5016 8.20801 11.0986 8.61095 11.0986 9.10801V12.7892C11.0986 13.081 11.2145 13.3608 11.4208 13.5671L14.3822 16.5285C14.7337 16.88 15.3036 16.88 15.655 16.5285C16.0065 16.177 16.0065 15.6072 15.655 15.2557L12.8986 12.4993V9.10801Z"/></svg>

<svg xmlns="http://www.w3.org/2000/svg" width="24" height="25"><path fill-rule="evenodd" d="M12 4.4a8.09 8.09 0 0 0-6.647 3.47h1.039a.9.9 0 1 1 0 1.8H3a.9.9 0 0 1-.9-.9V5.38a.9.9 0 0 1 1.8 0v1.428A9.888 9.888 0 0 1 12 2.601c5.468 0 9.9 4.432 9.9 9.9 0 5.467-4.432 9.9-9.9 9.9s-9.9-4.433-9.9-9.9a.9.9 0 1 1 1.8 0A8.1 8.1 0 1 0 12 4.4Zm.899 4.708a.9.9 0 1 0-1.8 0v3.681c0 .292.115.572.322.778l2.961 2.962a.9.9 0 1 0 1.273-1.273l-2.756-2.757V9.108Z" clip-rule="evenodd"/></svg>
